X:135
T:Blackbird, The
R:hornpipe
D:Padraig McGovern & Peter Carberry: Forgotten Gems
Z:id:hn-hornpipe-135
M:C|
L:1/8
K:D
fe | dcAF GFD2 | (3EFG AB =cBcA | d2AF GBAG | F2D2 D2 (3ABc |
d2AF GFD2 | (3EFG AB =c3A | d2AF GBAG | FAD2 D2 :|
|: zA | d2 (3efg adfa | gfga gfdA | defg abag | (3fgf d2 d2 (3efg |
ag (3fga g2fe | dcde fd (3efe | dcAF GBAG | F2D2 D2 :|
|: zE | DEFG AB (3=cBA | d^cde dcAF | D2 (3EFG AdAG | (3FGF D2 D2AF |
D2 (3EFG AB=cA | d^cdg fd (3efe | dcAF GBAG | F2D2 D2 :|

